X: 1494
T: Andy Broon's
R: reel
M: 4/4
K: Dmajor
fe|:dAFd AFdA|FdAF ~f3 e|dAFd AFdA|1 ceed e2 fe:|2 ceed e2 dc||
|:BGBd cAce|dcde fedc|BGBd cAce|1 ~d3c decd:|2 dcde f4||

